svgs/marker.svg

<?xml version="1.0" encoding="UTF-8" standalone="no"?>
<svg
   xmlns:dc="http://purl.org/dc/elements/1.1/"
   xmlns:cc="http://creativecommons.org/ns#"
   xmlns:rdf="http://www.w3.org/1999/02/22-rdf-syntax-ns#"
   xmlns:svg="http://www.w3.org/2000/svg"
   xmlns="http://www.w3.org/2000/svg"
   xmlns:sodipodi="http://sodipodi.sourceforge.net/DTD/sodipodi-0.dtd"
   xmlns:inkscape="http://www.inkscape.org/namespaces/inkscape"
   height="24px"
   version="1.1"
   viewBox="0 0 24 24"
   width="24px"
   id="svg2"
   inkscape:version="0.92.3 (2405546, 2018-03-11)"
   sodipodi:docname="marker.svg">
  <metadata
     id="metadata16">
    <rdf:RDF>
      <cc:Work
         rdf:about="">
        <dc:format>image/svg+xml</dc:format>
        <dc:type
           rdf:resource="http://purl.org/dc/dcmitype/StillImage" />
      </cc:Work>
    </rdf:RDF>
  </metadata>
  <sodipodi:namedview
     pagecolor="#ffffff"
     bordercolor="#666666"
     borderopacity="1"
     objecttolerance="10"
     gridtolerance="10"
     guidetolerance="10"
     inkscape:pageopacity="0"
     inkscape:pageshadow="2"
     inkscape:window-width="1416"
     inkscape:window-height="808"
     id="namedview14"
     showgrid="false"
     inkscape:zoom="9.8333333"
     inkscape:cx="-23.59322"
     inkscape:cy="12"
     inkscape:window-x="325"
     inkscape:window-y="168"
     inkscape:window-maximized="0"
     inkscape:current-layer="svg2" />
  <title
     id="title4" />
  <desc
     id="desc6" />
  <defs
     id="defs8" />
  <g
     fill="none"
     fill-rule="evenodd"
     id="miu"
     stroke="none"
     stroke-width="1"
     style="fill:#747474;fill-opacity:1;stroke:none;stroke-opacity:1">
    <g
       id="Artboard-1"
       transform="translate(-899.000000, -227.000000)"
       style="fill:#747474;fill-opacity:1;stroke:none;stroke-opacity:1">
      <g
         id="slice"
         transform="translate(215.000000, 119.000000)"
         style="fill:#747474;fill-opacity:1;stroke:none;stroke-opacity:1" />
      <path
         d="M914.000027,248.002414 L914.000464,232.002414 L914.000464,232.002414 L907.001354,232.002414 L907.000079,248.002414 L914.000027,248.002414 Z M913.998311,249.002414 L910.501672,254 L907.00169,249.002414 L913.998311,249.002414 Z M914.000492,231.002414 L914.000574,228.002414 C914.000574,227 912.99816,227 912.99816,227 L908.004086,227 C908.004086,227 907.001672,227 907.001672,228.002414 L907.001433,231.002414 L914.000492,231.002414 L914.000492,231.002414 Z"
         fill="#000000"
         id="editor-pencil-pen-edit-write-glyph"
         transform="translate(910.500326, 240.500000) rotate(45.000000) translate(-910.500326, -240.500000) "
         style="fill:#747474;fill-opacity:1;stroke:none;stroke-opacity:1" />
    </g>
  </g>
</svg>

<?xml version="1.0" encoding="UTF-8" standalone="no"?>
<svg
   xmlns:dc="http://purl.org/dc/elements/1.1/"
   xmlns:cc="http://creativecommons.org/ns#"
   xmlns:rdf="http://www.w3.org/1999/02/22-rdf-syntax-ns#"
   xmlns:svg="http://www.w3.org/2000/svg"
   xmlns="http://www.w3.org/2000/svg"
   xmlns:sodipodi="http://sodipodi.sourceforge.net/DTD/sodipodi-0.dtd"
   xmlns:inkscape="http://www.inkscape.org/namespaces/inkscape"
   height="24px"
   version="1.1"
   viewBox="0 0 24 24"
   width="24px"
   id="svg2"
   inkscape:version="0.92.1 r15371"
   sodipodi:docname="marker.svg">
  <metadata
     id="metadata16">
    <rdf:RDF>
      <cc:Work
         rdf:about="">
        <dc:format>image/svg+xml</dc:format>
        <dc:type
           rdf:resource="http://purl.org/dc/dcmitype/StillImage" />
      </cc:Work>
    </rdf:RDF>
  </metadata>
  <sodipodi:namedview
     pagecolor="#ffffff"
     bordercolor="#666666"
     borderopacity="1"
     objecttolerance="10"
     gridtolerance="10"
     guidetolerance="10"
     inkscape:pageopacity="0"
     inkscape:pageshadow="2"
     inkscape:window-width="1416"
     inkscape:window-height="808"
     id="namedview14"
     showgrid="false"
     inkscape:zoom="9.8333333"
     inkscape:cx="-29.237288"
     inkscape:cy="24"
     inkscape:window-x="325"
     inkscape:window-y="168"
     inkscape:window-maximized="0"
     inkscape:current-layer="svg2" />
  <title
     id="title4" />
  <desc
     id="desc6" />
  <defs
     id="defs8" />
  <g
     id="miu"
     style="fill:#267cb5;fill-opacity:1;fill-rule:evenodd;stroke:none;stroke-width:1;stroke-opacity:1"
     transform="matrix(1.1335622,0,0,1.1335785,-2.2162705,-2.1252335)">
    <g
       id="Artboard-1"
       transform="translate(-899,-227)"
       style="fill:#267cb5;fill-opacity:1;stroke:none;stroke-opacity:1">
      <g
         id="slice"
         transform="translate(215,119)"
         style="fill:#267cb5;fill-opacity:1;stroke:none;stroke-opacity:1" />
      <path
         d="m 914.00003,248.00241 4.3e-4,-16 v 0 h -6.99911 l -10e-4,16 z m -0.002,1 -3.49664,4.99759 -3.49998,-4.99759 z m 0.002,-18 8e-5,-3 C 914.00057,227 912.99816,227 912.99816,227 h -4.99407 c 0,0 -1.00242,0 -1.00242,1.00241 l -2.4e-4,3 h 6.99906 z"
         id="editor-pencil-pen-edit-write-glyph"
         transform="rotate(45,910.50033,240.5)"
         style="fill:#267cb5;fill-opacity:1;stroke:none;stroke-opacity:1"
         inkscape:connector-curvature="0" />
    </g>
  </g>
</svg>
